_includes/icons/color-paint-bucket.svg

<svg fill="#666" height="50" viewBox="0 0 48 48" width="50" xmlns="http://www.w3.org/2000/svg"><path d="m40 17-32 .003906v25.996094c0 1.65625 1.34375 3 3 3h26c1.65625 0 3-1.34375 3-3z" fill="#cfd8dc"/><path d="m11.8125 17v.011719c1.371094.054687 2.566406.695312 3.285156 2.023437.878907 1.617188.972657 3.730469 2.6875 4.71875 2.394532 1.378907 3.574219-.441406 5.59375-1.128906 2.351563-.800781 3.804688 1.332031 4.488282 3.136719.660156 1.746094.957031 3.847656 1.132812 5.863281.171875 1.964844.527344 4.839844 1.628906 6.472656 1.195313 1.769532 3.707032 2.304688 4.871094.285157 1.078125-1.871094.25-16.964844 4.5-21.382813-3.582031 0-28.1875 0-28.1875 0z" fill="#e91e63"/><path d="m42 18.832031c0-9.28125-8.074219-16.832031-18-16.832031s-18 7.550781-18 16.832031v7.167969h2s0-7.140625 0-7.167969c0-8.179687 7.179688-14.832031 16-14.832031 8.820313 0 16 6.652344 16 14.832031v7.167969h2s0-7.140625 0-7.167969z" fill="#546e7a"/></svg>

<svg xmlns="http://www.w3.org/2000/svg" viewBox="0 0 48 48" width="50" height="50" fill="#666"><path d="M 40 17 L 8 17.003906 L 8 43 C 8 44.65625 9.34375 46 11 46 L 37 46 C 38.65625 46 40 44.65625 40 43 L 40 17" fill="#cfd8dc"/><path d="M 11.8125 17 L 11.8125 17.011719 C 13.183594 17.066406 14.378906 17.707031 15.097656 19.035156 C 15.976563 20.652344 16.070313 22.765625 17.785156 23.753906 C 20.179688 25.132813 21.359375 23.3125 23.378906 22.625 C 25.730469 21.824219 27.183594 23.957031 27.867188 25.761719 C 28.527344 27.507813 28.824219 29.609375 29 31.625 C 29.171875 33.589844 29.527344 36.464844 30.628906 38.097656 C 31.824219 39.867188 34.335938 40.402344 35.5 38.382813 C 36.578125 36.511719 35.75 21.417969 40 17 C 36.417969 17 11.8125 17 11.8125 17 Z" fill="#e91e63"/><path d="M 42 18.832031 C 42 9.550781 33.925781 2 24 2 C 14.074219 2 6 9.550781 6 18.832031 C 6 18.859375 6 26 6 26 L 8 26 C 8 26 8 18.859375 8 18.832031 C 8 10.652344 15.179688 4 24 4 C 32.820313 4 40 10.652344 40 18.832031 C 40 18.859375 40 26 40 26 L 42 26 C 42 26 42 18.859375 42 18.832031 Z" fill="#546e7a"/></svg>
